X: 115
M:9/8
L:1/8
K:G
vd2c BGB BGB|d2c BGB c2A|d2c BGB BGB|{d}cBc AFA c2A|
d2c BGB BGB|ded BGB c2A|ded BGB BGB|{d}cBc AFA cBA|]


